public/fec-new.svg

<svg width="846" height="126" viewBox="0 0 846 126" fill="none" xmlns="http://www.w3.org/2000/svg">
<g filter="url(#filter0_d)">
<path fill-rule="evenodd" clip-rule="evenodd" d="M26.0953 33.7799V48.7328L0 65.3874V76.2491L26.0953 92.9037V102.759C26.0953 104.679 26.859 106.521 28.2184 107.879C29.5778 109.237 31.4215 110 33.344 110H83.7513C85.6738 110 87.5175 109.237 88.8769 107.879C90.2363 106.521 91 104.679 91 102.759V33.7799H26.0953ZM13.1419 70.9993V70.6228L26.0953 62.8096V78.8053L13.1419 70.9993ZM82.4755 67.8711V73.1789L64.5133 84.6199V77.5743L76.0605 70.6155V70.4345L64.5133 63.4758V56.4302L82.4755 67.8711ZM36.3449 89.2687H42.8687L57.9895 49.4642H51.4657L36.3449 89.2687Z" fill="white"/>
<path d="M46.2684 20.7892C46.2684 21.8682 47.5151 22.9616 49.5883 23.6857L47.5949 27.9145C43.1224 26.0101 41.3175 23.4395 41.3175 20.7096C41.3175 17.2338 44.304 15.9087 44.304 13.6712C44.304 12.5488 43.0572 11.4989 40.9841 10.7748L42.9557 6.51697C47.4281 8.45035 49.2911 11.0209 49.2911 13.7581C49.2911 17.2338 46.2684 18.559 46.2684 20.7892Z" fill="white"/>
<path d="M71.2763 20.7892C71.2763 21.8682 72.5231 22.9616 74.589 23.6857L72.6028 27.9145C68.1304 26.0101 66.3037 23.4395 66.3037 20.7096C66.3037 17.2338 69.2902 15.9087 69.2902 13.6712C69.2902 12.5488 68.0434 11.4989 65.9703 10.7748L67.9637 6.51697C72.4361 8.42138 74.2628 10.992 74.2628 13.7581C74.2628 17.2338 71.2763 18.559 71.2763 20.7892Z" fill="white"/>
<path d="M59.2 14.2433C59.2 15.315 60.4468 16.4156 62.5199 17.1398L60.5265 21.3613C56.0541 19.4569 54.2274 16.8936 54.2274 14.1564C54.2274 10.6807 57.2139 9.35554 57.2139 7.11803C57.2139 6.0029 55.9671 4.94569 53.894 4.22158L55.8874 0C60.3598 1.90442 62.1865 4.46778 62.1865 7.24113C62.1865 10.6807 59.2 12.0058 59.2 14.2433Z" fill="white"/>
</g>
<g filter="url(#filter1_d)">
<path d="M159.632 52.98V41.8H114.138V102H128.07V80.07H155.934V68.89H128.07V52.98H159.632ZM221.524 102L208.022 82.65C215.848 79.296 220.406 72.674 220.406 63.644C220.406 50.142 210.344 41.8 194.262 41.8H168.204V102H182.136V85.23H194.262H194.95L206.56 102H221.524ZM206.302 63.644C206.302 70.18 202.002 74.136 193.488 74.136H182.136V53.152H193.488C202.002 53.152 206.302 57.022 206.302 63.644ZM259.738 103.032C278.658 103.032 292.676 89.874 292.676 71.9C292.676 53.926 278.658 40.768 259.738 40.768C240.732 40.768 226.8 54.012 226.8 71.9C226.8 89.788 240.732 103.032 259.738 103.032ZM259.738 91.164C248.988 91.164 240.904 83.338 240.904 71.9C240.904 60.462 248.988 52.636 259.738 52.636C270.488 52.636 278.572 60.462 278.572 71.9C278.572 83.338 270.488 91.164 259.738 91.164ZM343.739 41.8V78.35L313.811 41.8H302.287V102H316.047V65.45L346.061 102H357.499V41.8H343.739ZM383.352 102H397.284V53.152H416.548V41.8H364.088V53.152H383.352V102ZM437.03 90.82V76.888H464.98V66.052H437.03V52.98H468.678V41.8H423.184V102H469.796V90.82H437.03ZM521.473 41.8V78.35L491.545 41.8H480.021V102H493.781V65.45L523.795 102H535.233V41.8H521.473ZM548.616 102H575.964C595.658 102 609.16 90.132 609.16 71.9C609.16 53.668 595.658 41.8 575.964 41.8H548.616V102ZM562.548 90.562V53.238H575.276C587.23 53.238 595.056 60.376 595.056 71.9C595.056 83.424 587.23 90.562 575.276 90.562H562.548ZM647.617 102.516C656.475 102.516 664.387 99.506 669.719 93.658L665.677 89.616C660.775 94.69 654.755 96.84 647.875 96.84C633.341 96.84 622.419 86.176 622.419 71.9C622.419 57.624 633.341 46.96 647.875 46.96C654.755 46.96 660.775 49.11 665.677 54.098L669.719 50.056C664.387 44.208 656.475 41.284 647.703 41.284C629.557 41.284 616.141 54.27 616.141 71.9C616.141 89.53 629.557 102.516 647.617 102.516ZM725.892 102H732.6L705.08 41.8H698.802L671.282 102H677.904L685.128 85.918H718.668L725.892 102ZM687.45 80.758L701.898 48.422L716.346 80.758H687.45ZM782.978 47.304V41.8H741.698V102H748.062V76.458H779.194V70.954H748.062V47.304H782.978ZM801.624 96.496V74.136H832.756V68.718H801.624V47.304H836.54V41.8H795.26V102H837.83V96.496H801.624Z" fill="white"/>
</g>
<defs>
<filter id="filter0_d" x="0" y="0" width="97" height="116" filterUnits="userSpaceOnUse" color-interpolation-filters="sRGB">
<feFlood flood-opacity="0" result="BackgroundImageFix"/>
<feColorMatrix in="SourceAlpha" type="matrix" values="0 0 0 0 0 0 0 0 0 0 0 0 0 0 0 0 0 0 127 0"/>
<feOffset dx="4" dy="4"/>
<feGaussianBlur stdDeviation="1"/>
<feColorMatrix type="matrix" values="0 0 0 0 0 0 0 0 0 0 0 0 0 0 0 0 0 0 0.1 0"/>
<feBlend mode="normal" in2="BackgroundImageFix" result="effect1_dropShadow"/>
<feBlend mode="normal" in="SourceGraphic" in2="effect1_dropShadow" result="shape"/>
</filter>
<filter id="filter1_d" x="114.138" y="40.7679" width="729.692" height="68.264" filterUnits="userSpaceOnUse" color-interpolation-filters="sRGB">
<feFlood flood-opacity="0" result="BackgroundImageFix"/>
<feColorMatrix in="SourceAlpha" type="matrix" values="0 0 0 0 0 0 0 0 0 0 0 0 0 0 0 0 0 0 127 0"/>
<feOffset dx="4" dy="4"/>
<feGaussianBlur stdDeviation="1"/>
<feColorMatrix type="matrix" values="0 0 0 0 0 0 0 0 0 0 0 0 0 0 0 0 0 0 0.1 0"/>
<feBlend mode="normal" in2="BackgroundImageFix" result="effect1_dropShadow"/>
<feBlend mode="normal" in="SourceGraphic" in2="effect1_dropShadow" result="shape"/>
</filter>
</defs>
</svg>

<svg width="846" height="126" fill="none" xmlns="http://www.w3.org/2000/svg"><g filter="url(#filter0_d)" fill="#fff"><path fill-rule="evenodd" clip-rule="evenodd" d="M26.095 33.78v14.953L0 65.387V76.25l26.095 16.655v9.855c0 1.92.764 3.762 2.123 5.12A7.253 7.253 0 0033.344 110h50.407a7.253 7.253 0 005.126-2.121 7.238 7.238 0 002.123-5.12v-68.98H26.095zM13.142 71v-.377l12.953-7.813v15.995L13.142 71zm69.333-3.129v5.308l-17.962 11.44v-7.045l11.547-6.959v-.18l-11.547-6.96V56.43l17.962 11.441zM36.345 89.27h6.524l15.12-39.805h-6.523L36.345 89.27z"/><path d="M46.268 20.79c0 1.078 1.247 2.172 3.32 2.896l-1.993 4.229c-4.473-1.905-6.277-4.476-6.277-7.205 0-3.476 2.986-4.801 2.986-7.039 0-1.122-1.247-2.172-3.32-2.896l1.972-4.258c4.472 1.933 6.335 4.504 6.335 7.241 0 3.476-3.023 4.801-3.023 7.031zM71.276 20.79c0 1.078 1.247 2.172 3.313 2.896l-1.986 4.229c-4.473-1.905-6.3-4.476-6.3-7.205 0-3.476 2.987-4.801 2.987-7.039 0-1.122-1.247-2.172-3.32-2.896l1.994-4.258c4.472 1.904 6.299 4.475 6.299 7.241 0 3.476-2.987 4.801-2.987 7.031zM59.2 14.243c0 1.072 1.247 2.173 3.32 2.897l-1.994 4.221c-4.472-1.904-6.299-4.467-6.299-7.205 0-3.475 2.987-4.8 2.987-7.038 0-1.115-1.247-2.172-3.32-2.896L55.887 0c4.473 1.904 6.3 4.468 6.3 7.241 0 3.44-2.987 4.765-2.987 7.002z"/></g><g filter="url(#filter1_d)"><path d="M159.632 52.98V41.8h-45.494V102h13.932V80.07h27.864V68.89H128.07V52.98h31.562zM221.524 102l-13.502-19.35c7.826-3.354 12.384-9.976 12.384-19.006 0-13.502-10.062-21.844-26.144-21.844h-26.058V102h13.932V85.23h12.814L206.56 102h14.964zm-15.222-38.356c0 6.536-4.3 10.492-12.814 10.492h-11.352V53.152h11.352c8.514 0 12.814 3.87 12.814 10.492zm53.436 39.388c18.92 0 32.938-13.158 32.938-31.132 0-17.974-14.018-31.132-32.938-31.132-19.006 0-32.938 13.244-32.938 31.132s13.932 31.132 32.938 31.132zm0-11.868c-10.75 0-18.834-7.826-18.834-19.264 0-11.438 8.084-19.264 18.834-19.264s18.834 7.826 18.834 19.264c0 11.438-8.084 19.264-18.834 19.264zM343.739 41.8v36.55L313.811 41.8h-11.524V102h13.76V65.45L346.061 102h11.438V41.8h-13.76zm39.613 60.2h13.932V53.152h19.264V41.8h-52.46v11.352h19.264V102zm53.678-11.18V76.888h27.95V66.052h-27.95V52.98h31.648V41.8h-45.494V102h46.612V90.82H437.03zm84.443-49.02v36.55L491.545 41.8h-11.524V102h13.76V65.45L523.795 102h11.438V41.8h-13.76zm27.143 60.2h27.348c19.694 0 33.196-11.868 33.196-30.1s-13.502-30.1-33.196-30.1h-27.348V102zm13.932-11.438V53.238h12.728c11.954 0 19.78 7.138 19.78 18.662s-7.826 18.662-19.78 18.662h-12.728zm85.069 11.954c8.858 0 16.77-3.01 22.102-8.858l-4.042-4.042c-4.902 5.074-10.922 7.224-17.802 7.224-14.534 0-25.456-10.664-25.456-24.94 0-14.276 10.922-24.94 25.456-24.94 6.88 0 12.9 2.15 17.802 7.138l4.042-4.042c-5.332-5.848-13.244-8.772-22.016-8.772-18.146 0-31.562 12.986-31.562 30.616s13.416 30.616 31.476 30.616zm78.275-.516h6.708l-27.52-60.2h-6.278l-27.52 60.2h6.622l7.224-16.082h33.54L725.892 102zM687.45 80.758l14.448-32.336 14.448 32.336H687.45zm95.528-33.454V41.8h-41.28V102h6.364V76.458h31.132v-5.504h-31.132v-23.65h34.916zm18.646 49.192v-22.36h31.132v-5.418h-31.132V47.304h34.916V41.8h-41.28V102h42.57v-5.504h-36.206z" fill="#fff"/></g><defs><filter id="filter0_d" x="0" y="0" width="97" height="116" filterUnits="userSpaceOnUse" color-interpolation-filters="sRGB"><feFlood flood-opacity="0" result="BackgroundImageFix"/><feColorMatrix in="SourceAlpha" values="0 0 0 0 0 0 0 0 0 0 0 0 0 0 0 0 0 0 127 0"/><feOffset dx="4" dy="4"/><feGaussianBlur stdDeviation="1"/><feColorMatrix values="0 0 0 0 0 0 0 0 0 0 0 0 0 0 0 0 0 0 0.1 0"/><feBlend in2="BackgroundImageFix" result="effect1_dropShadow"/><feBlend in="SourceGraphic" in2="effect1_dropShadow" result="shape"/></filter><filter id="filter1_d" x="114.138" y="40.768" width="729.692" height="68.264" filterUnits="userSpaceOnUse" color-interpolation-filters="sRGB"><feFlood flood-opacity="0" result="BackgroundImageFix"/><feColorMatrix in="SourceAlpha" values="0 0 0 0 0 0 0 0 0 0 0 0 0 0 0 0 0 0 127 0"/><feOffset dx="4" dy="4"/><feGaussianBlur stdDeviation="1"/><feColorMatrix values="0 0 0 0 0 0 0 0 0 0 0 0 0 0 0 0 0 0 0.1 0"/><feBlend in2="BackgroundImageFix" result="effect1_dropShadow"/><feBlend in="SourceGraphic" in2="effect1_dropShadow" result="shape"/></filter></defs></svg>
